icons/1_Primary/Segment.svg

<svg xmlns="http://www.w3.org/2000/svg" viewBox="0 0 1024 1024">
   <circle cx="512" cy="512" r="512" style="fill:#52bd94"/>
   <path d="M346.8 654.5c-16 0-29 13-29 29s13 29 29 29 29-13 29-29-13-29-29-29zM666.7 304c-16 0-29.1 12.9-29.1 29 0 16 12.9 29.1 29 29.1 16 0 29.1-12.9 29.1-29v-.1c0-16-13-29-29-29zM456.6 421.2v35.6c0 5.3 4.3 9.7 9.7 9.7h287.4c5.3 0 9.7-4.3 9.7-9.7v-35.6c0-5.3-4.4-9.7-9.7-9.7H466.3c-5.4.1-9.7 4.4-9.7 9.7zm110.6 164.1v-35.5c0-5.3-4.3-9.7-9.7-9.7H270.1c-5.3 0-9.7 4.3-9.7 9.7v35.5c0 5.3 4.3 9.7 9.7 9.7h287.4c5.4 0 9.7-4.3 9.7-9.7zm194-47.8c-1.6-2-3.8-3.3-6.4-3.6l-35.3-3.6c-5.2-.6-9.9 3.1-10.6 8.3-14.8 110.2-116.3 187.6-226.5 172.7-15.3-2.1-30.3-5.9-44.7-11.3-4.9-1.9-10.4.4-12.3 5.3L411.9 738c-1 2.4-1 5.1 0 7.5 1 2.4 3 4.4 5.5 5.3 131.9 50.9 280.2-14.8 331.1-146.7 7.4-19.1 12.4-39 15-59.3.3-2.7-.5-5.3-2.3-7.3zm-498.7-81.6c-1.4-2.2-1.8-4.9-1.1-7.4 29-113.3 131.1-192.5 248-192.4 28.6 0 57.1 4.7 84.1 14.2 5 1.6 7.8 7 6.2 12-.1.2-.2.5-.3.7l-12.7 33.2c-1.8 4.9-7.2 7.5-12.1 5.7-21-7.2-43.1-10.8-65.3-10.8-46-.2-90.6 15.5-126.3 44.5-33.5 27.1-57.4 64.2-68.4 105.8-1.1 4.2-4.9 7.2-9.3 7.2-.7.1-1.5.1-2.2 0l-34.6-7.9c-2.6-.8-4.7-2.5-6-4.8z" style="fill:#fff"/>
</svg>

<svg width="1024" height="1024" viewBox="0 0 1024 1024" fill="none" xmlns="http://www.w3.org/2000/svg">
<g clip-path="url(#clip0_2_3426)">
<path d="M512 1024C794.77 1024 1024 794.77 1024 512C1024 229.23 794.77 0 512 0C229.23 0 0 229.23 0 512C0 794.77 229.23 1024 512 1024Z" fill="#96DFD3"/>
<path d="M346.8 654.5C330.8 654.5 317.8 667.5 317.8 683.5C317.8 699.5 330.8 712.5 346.8 712.5C362.8 712.5 375.8 699.5 375.8 683.5C375.8 667.5 362.8 654.5 346.8 654.5ZM666.7 304C650.7 304 637.6 316.9 637.6 333C637.6 349 650.5 362.1 666.6 362.1C682.6 362.1 695.7 349.2 695.7 333.1V333C695.7 317 682.7 304 666.7 304ZM456.6 421.2V456.8C456.6 462.1 460.9 466.5 466.3 466.5H753.7C759 466.5 763.4 462.2 763.4 456.8V421.2C763.4 415.9 759 411.5 753.7 411.5H466.3C460.9 411.6 456.6 415.9 456.6 421.2ZM567.2 585.3V549.8C567.2 544.5 562.9 540.1 557.5 540.1H270.1C264.8 540.1 260.4 544.4 260.4 549.8V585.3C260.4 590.6 264.7 595 270.1 595H557.5C562.9 595 567.2 590.7 567.2 585.3ZM761.2 537.5C759.6 535.5 757.4 534.2 754.8 533.9L719.5 530.3C714.3 529.7 709.6 533.4 708.9 538.6C694.1 648.8 592.6 726.2 482.4 711.3C467.1 709.2 452.1 705.4 437.7 700C432.8 698.1 427.3 700.4 425.4 705.3L411.9 738C410.9 740.4 410.9 743.1 411.9 745.5C412.9 747.9 414.9 749.9 417.4 750.8C549.3 801.7 697.6 736 748.5 604.1C755.9 585 760.9 565.1 763.5 544.8C763.8 542.1 763 539.5 761.2 537.5ZM262.5 455.9C261.1 453.7 260.7 451 261.4 448.5C290.4 335.2 392.5 256 509.4 256.1C538 256.1 566.5 260.8 593.5 270.3C598.5 271.9 601.3 277.3 599.7 282.3C599.6 282.5 599.5 282.8 599.4 283L586.7 316.2C584.9 321.1 579.5 323.7 574.6 321.9C553.6 314.7 531.5 311.1 509.3 311.1C463.3 310.9 418.7 326.6 383 355.6C349.5 382.7 325.6 419.8 314.6 461.4C313.5 465.6 309.7 468.6 305.3 468.6C304.6 468.7 303.8 468.7 303.1 468.6L268.5 460.7C265.9 459.9 263.8 458.2 262.5 455.9Z" fill="white"/>
</g>
<defs>
<clipPath id="clip0_2_3426">
<rect width="1024" height="1024" fill="white"/>
</clipPath>
</defs>
</svg>
